X: 22446
T: Lads Of Laois, The
R: reel
M: 4/4
K: Eminor
|:E2EF G2FE|DA, ~A,2 DEFD|ECEG ADFA|Bgfe dBAF|
E2EF G2FE|DA, ~A,2 DEFD|E2BE dEBE|DEFA B2AF:|
|:e3e efge|d2ff gfed|^cdef ~g3e|fBdf gfed|
efed BA^GA|BE~E2 Bdef|~=g3e ~f3f|1 efed BABd:|2 efed BAFD||

